images/defi-ico.svg

<svg width="116" height="93" viewBox="0 0 116 93" fill="none" xmlns="http://www.w3.org/2000/svg">
<path d="M2.58473 60.241C0.908307 60.8738 0.845889 63.2222 2.48634 63.9431L36.272 78.7909C37.422 79.2963 38.7477 78.6289 39.0267 77.4041L56.0761 2.56031C56.5487 0.485942 59.5037 0.485947 59.9762 2.56032L77.0254 77.403C77.3045 78.6281 78.6309 79.2954 79.781 78.7894L113.519 63.9434C115.158 63.2219 115.096 60.8746 113.42 60.2418L32.5456 29.6976C30.8766 29.0672 29.2799 30.7722 30.0184 32.3964L56.2055 89.9954C56.9161 91.5584 59.1362 91.5584 59.8469 89.9954L86.0346 32.3952C86.7729 30.7712 85.1767 29.0663 83.5076 29.6963L2.58473 60.241Z" stroke="#10143E" stroke-width="2" stroke-miterlimit="10"/>
</svg>

<svg width="116" height="93" fill="none" xmlns="http://www.w3.org/2000/svg"><path d="M2.585 60.241c-1.677.633-1.74 2.981-.099 3.702l33.786 14.848a2 2 0 002.755-1.387L56.077 2.56c.472-2.074 3.427-2.074 3.9 0l17.048 74.843a2 2 0 002.756 1.386l33.738-14.846c1.639-.721 1.577-3.068-.099-3.701L32.546 29.698c-1.67-.63-3.266 1.074-2.528 2.698l26.188 57.6c.71 1.562 2.93 1.562 3.64 0l26.189-57.6c.738-1.625-.858-3.33-2.527-2.7L2.585 60.241z" stroke="#10143E" stroke-width="2" stroke-miterlimit="10"/></svg>
